X:49
T:Her Turn on Top
M:C|
L:1/8
C: G. Stobbe and P. Gitlitz 2000
R:Reel
B:Giblitz Fancy 
N:When Gord and I met. We cranked out 4 new tunes in two days.
K:Bb
d3c|"Bb"B2Bc BFDF|BFBc d4|dcBd cBAG|"F"F6DF|!
"Bb"BFBc BFDF|BFBcd4|bfdg "F"fdcd|1"Bb"B4:|2"Bb"B4 A4|! 
|"Gm"G2GF D2DF|GFGF D3C|G,2G,A, "Bb"B,2 "C7"C2|"D7"D6DF|!
"Gm"G2GF D2DF|GFGF D3z|"Bb"bfdg "F"fdcd|"Bb"B6 (3fga|!
"Bb"b2bf gfdf|gfbf gfdf|Bcdf gfdf|"F"c6 (3fga|! 
"Bb"b2bf gfdf|gfbf gfdf|bfdg "F"fdcd|"Bb"B4|]
